X: 211
T:Wayne and the Bear
R:Reel
C:Emile Benoit
P:3
M:C|
L:1/8
Z:Gerry Strong
K:A
|:B2 GE BEGB|A2 FD ADFA|B2 GE BEGB|B,CDF FE ~E2|B2 GE BEGB|A2 FD ADFA|EF
GA BcdB|AFdF FE ~E2:|
|:Beed e2 Be|d2 A=G FD ~D2|Beed e2 fa|gbaf ge ~e2|Beed edBe|d2 A=G FDDF|
EFGA BcdB|AFdF FE ~E2:|
K:D
|:GABA G2 EG|FGAG FEDF|GABA G2 EG|FDAD FE ~E2|GABA G2 EG|FGAG FEDF|GABc
dBAF|dBAF FE ~E2:|

